src/48x48/places/folder-gruvbox-mix-blue-pcloud.svg

<?xml version="1.0" encoding="UTF-8"?>
<svg width="48" height="48" version="1" xmlns="http://www.w3.org/2000/svg">
 <rect x="4" y="17" width="40" height="26" rx="2" ry="2" opacity=".2"/>
 <path d="m4 34c0 1.108 0.892 2 2 2h36c1.108 0 2-0.892 2-2v-22c0-1.108-0.892-2-2-2h-18c-3 0-4-4-7-4h-11c-1.108 0-2 0.892-2 2" fill="#266b79"/>
 <rect x="4" y="15" width="40" height="26" rx="2" ry="2" opacity=".2"/>
 <rect x="6" y="13" width="36" height="16" rx="2" ry="2" fill="#dadec0"/>
 <rect x="4" y="16" width="40" height="26" rx="2" ry="2" fill="#80aa9e"/>
 <path d="m6 6c-1.108 0-2 0.892-2 2v1c0-1.108 0.892-2 2-2h11c3 0 4 4 7 4h18c1.108 0 2 0.892 2 2v-1c0-1.108-0.892-2-2-2h-18c-3 0-4-4-7-4z" fill="#dadec0" opacity=".1"/>
 <path d="m24.5 22a6.5 6.5 0 0 0-6.0098 4.0312 5 5 0 0 0-4.4902 4.9688 5 5 0 0 0 5 5h11.75c1.7949 0 3.25-1.4551 3.25-3.25 0-1.227-0.68777-2.2828-1.6914-2.8359a3 3 0 0 0 0.69141-1.9141 3 3 0 0 0-3-3 3 3 0 0 0-0.02344 0 6.5 6.5 0 0 0-5.4766-3zm0 2a4.5 4.5 0 0 1 4.5 4.5 4.5 4.5 0 0 1-4.5 4.5 4.5 4.5 0 0 1-4.5-4.5 4.5 4.5 0 0 1 4.5-4.5zm0 1a3.5 3.5 0 0 0-3.5 3.5 3.5 3.5 0 0 0 3.5 3.5 3.5 3.5 0 0 0 3.5-3.5 3.5 3.5 0 0 0-3.5-3.5zm-1.5 1h2.5a1.5 1.5 0 0 1 1.5 1.5 1.5 1.5 0 0 1-1.5 1.5h-1.5v2h-1v-2zm1 1v1h1.5a0.5 0.5 0 0 0 0.5-0.5 0.5 0.5 0 0 0-0.5-0.5z" fill="#374141"/>
</svg>

<svg xmlns="http://www.w3.org/2000/svg" width="48" height="48" version="1">
 <rect style="opacity:0.2" width="40" height="26" x="4" y="17" rx="2" ry="2"/>
 <path style="fill:#266b79" d="M 4,34 C 4,35.108 4.892,36 6,36 H 42 C 43.108,36 44,35.108 44,34 V 12 C 44,10.892 43.108,10 42,10 H 24 C 21,10 20,6 17,6 H 6 C 4.892,6 4,6.892 4,8"/>
 <rect style="opacity:0.2" width="40" height="26" x="4" y="15" rx="2" ry="2"/>
 <rect style="fill:#dadec0" width="36" height="16" x="6" y="13" rx="2" ry="2"/>
 <rect style="fill:#80aa9e" width="40" height="26" x="4" y="16" rx="2" ry="2"/>
 <path style="opacity:0.1;fill:#dadec0" d="M 6,6 C 4.892,6 4,6.892 4,8 V 9 C 4,7.892 4.892,7 6,7 H 17 C 20,7 21,11 24,11 H 42 C 43.108,11 44,11.892 44,13 V 12 C 44,10.892 43.108,10 42,10 H 24 C 21,10 20,6 17,6 Z"/>
 <path style="fill:#374141" d="M 24.5,22 A 6.5,6.5 0 0 0 18.490235,26.03125 5,5 0 0 0 14,31 5,5 0 0 0 19,36 H 30.75 C 32.544925,36 34,34.544925 34,32.75 34,31.523022 33.312228,30.467196 32.308594,29.914062 A 3,3 0 0 0 33,28 3,3 0 0 0 30,25 3,3 0 0 0 29.97656,25 6.5,6.5 0 0 0 24.499998,22 Z m 0,2 A 4.5,4.5 0 0 1 29,28.5 4.5,4.5 0 0 1 24.5,33 4.5,4.5 0 0 1 20,28.5 4.5,4.5 0 0 1 24.5,24 Z m 0,1 A 3.5,3.5 0 0 0 21,28.5 3.5,3.5 0 0 0 24.5,32 3.5,3.5 0 0 0 28,28.5 3.5,3.5 0 0 0 24.5,25 Z M 23,26 h 1 1.5 A 1.5,1.5 0 0 1 27,27.5 1.5,1.5 0 0 1 25.5,29 H 24 v 2 h -1 v -2 z m 1,1 v 1 h 1.5 A 0.5,0.5 0 0 0 26,27.5 0.5,0.5 0 0 0 25.5,27 Z"/>
</svg>
